X:629
T:Bastringue, La
S:Forgotten
Z:Nigel Gatherer
O:Quebec
M:4/4
L:1/8
K:D
A2 | f3 f f2 gf | e2  c2 d4   | c2 d2 efec  | d2 e2 f2 d2 |
     f3 f f2 gf | e2  c2 d4   | g2 f2 e2 d2 | B2 c2 d2   :|
A2 | d2 fd adfd | =c2 ec gcec | d2 fd adfa  | bgec  dcBA  |
     d2 fd adfd | =c2 ec gcec | d2 fd adfa  | bgec  d2  :|]
<end>
<start>
